hosting/assets/images/header/viberIco.svg

<svg width="19" height="20" viewBox="0 0 19 20" fill="none" xmlns="http://www.w3.org/2000/svg">
<path d="M16.5525 2.84444C16.0767 2.40914 14.1573 1.02344 9.8791 1.00458C9.8791 1.00458 4.83461 0.702773 2.37659 2.94456C1.00746 4.30559 0.525782 6.29635 0.476155 8.76594C0.425068 11.2341 0.359383 15.8613 4.84629 17.1164H4.85067L4.84775 19.0303C4.84775 19.0303 4.81856 19.8051 5.33235 19.9633C5.95269 20.1548 6.3176 19.5657 6.91021 18.9316C7.23571 18.5834 7.68527 18.0712 8.02391 17.6794C11.0921 17.9362 13.4523 17.35 13.7209 17.263C14.3397 17.0627 17.8458 16.6173 18.4165 11.99C19.0033 7.21918 18.1304 4.20257 16.5525 2.84444ZM17.0722 11.6462C16.5905 15.5087 13.7471 15.7525 13.2231 15.9193C12.9998 15.9904 10.9271 16.5026 8.32168 16.3343C8.32168 16.3343 6.3789 18.6632 5.77316 19.2697C5.67828 19.364 5.56735 19.4032 5.49291 19.3843C5.38781 19.3596 5.36008 19.2363 5.36154 19.0564C5.363 18.7996 5.3776 15.8758 5.3776 15.8758C5.3776 15.8758 5.37468 15.8758 5.3776 15.8758C1.58255 14.8282 1.80296 10.8902 1.84675 8.82833C1.89054 6.76647 2.2788 5.07752 3.43775 3.94139C5.51772 2.06816 9.80174 2.3482 9.80174 2.3482C13.4202 2.36416 15.1542 3.4466 15.5556 3.80935C16.8897 4.94257 17.5699 7.66173 17.0722 11.6462Z" fill="white"/>
<path d="M11.6394 8.89668C11.5109 8.89668 11.4044 8.79656 11.3985 8.66742C11.3576 7.85051 10.9708 7.45004 10.1812 7.40941C10.0484 7.40216 9.94473 7.28898 9.95202 7.15694C9.95932 7.0249 10.0732 6.92188 10.206 6.92913C11.2482 6.98282 11.8277 7.57628 11.8802 8.64276C11.8875 8.7748 11.7839 8.88797 11.651 8.89523C11.6481 8.89668 11.6437 8.89668 11.6394 8.89668Z" fill="white"/>
<path d="M12.8815 9.31003C12.8801 9.31003 12.8786 9.31003 12.8757 9.31003C12.7429 9.30712 12.6363 9.19685 12.6392 9.06481C12.6567 8.24355 12.4203 7.57754 11.9167 7.03052C11.4131 6.48494 10.7242 6.18604 9.809 6.12074C9.67617 6.11059 9.57546 5.99596 9.58567 5.86392C9.59589 5.73188 9.7112 5.63176 9.84403 5.64191C10.8731 5.71737 11.6905 6.07576 12.2729 6.70694C12.8567 7.34103 13.1428 8.13762 13.1224 9.07642C13.1194 9.20555 13.0129 9.31003 12.8815 9.31003Z" fill="white"/>
<path d="M14.1516 9.80493C14.0188 9.80493 13.9108 9.69901 13.9093 9.56697C13.8976 8.11598 13.4597 6.96099 12.6073 6.13537C11.7534 5.30686 10.6733 4.88317 9.39904 4.87446C9.26476 4.87301 9.1582 4.76564 9.1582 4.63214C9.15966 4.5001 9.26768 4.39273 9.4005 4.39273H9.40196C10.8061 4.40289 11.9986 4.87301 12.9445 5.79004C13.8933 6.70997 14.3808 7.97813 14.3924 9.56262C14.3939 9.69611 14.2859 9.80348 14.1531 9.80493C14.1531 9.80493 14.1531 9.80493 14.1516 9.80493Z" fill="white"/>
<path d="M10.2425 11.8768C10.2425 11.8768 10.5826 11.9058 10.7651 11.6809L11.1227 11.234C11.2949 11.012 11.7109 10.8713 12.1167 11.0962C12.4218 11.2688 12.7181 11.4575 13.0042 11.6592C13.2742 11.8565 13.8274 12.315 13.8289 12.315C14.0916 12.5356 14.1529 12.8606 13.9734 13.203C13.9734 13.2045 13.9719 13.2088 13.9719 13.2103C13.7748 13.5512 13.5238 13.8574 13.2289 14.12C13.226 14.1215 13.226 14.1229 13.2216 14.1258C12.9662 14.3391 12.7137 14.4596 12.467 14.4886C12.4305 14.4944 12.394 14.4973 12.3575 14.4958C12.2481 14.4973 12.1401 14.4799 12.0364 14.4465L12.0277 14.4349C11.6467 14.3275 11.0118 14.0605 9.95353 13.4816C9.34195 13.1493 8.75809 12.7677 8.21073 12.3368C7.93632 12.122 7.67505 11.8913 7.42691 11.6461L7.40064 11.62L7.37436 11.5939L7.34809 11.5677C7.33933 11.559 7.33057 11.5503 7.32182 11.5416C7.07514 11.295 6.84306 11.0352 6.62703 10.7624C6.19498 10.2183 5.80964 9.63937 5.47538 9.03141C4.89153 7.97944 4.62296 7.34826 4.5164 6.96955L4.50473 6.96084C4.47115 6.85782 4.4551 6.75045 4.4551 6.64162C4.45364 6.60535 4.4551 6.56762 4.4624 6.5328C4.49305 6.28758 4.61566 6.03801 4.82731 5.78263C4.82876 5.77973 4.83022 5.77973 4.83314 5.77538C5.09734 5.48228 5.40532 5.23271 5.74833 5.03682C5.74979 5.03682 5.75417 5.03537 5.75563 5.03537C6.1001 4.8569 6.42706 4.91784 6.64893 5.17757C6.65038 5.17902 7.11163 5.72895 7.30868 5.99738C7.51157 6.28178 7.70132 6.57633 7.87502 6.87958C8.10126 7.28441 7.95967 7.69794 7.73635 7.86771L7.28678 8.2232C7.06054 8.40458 7.08973 8.74266 7.08973 8.74266C7.08973 8.74266 7.75678 11.2456 10.2425 11.8768Z" fill="white"/>
</svg>

<svg width="19" height="20" fill="none" xmlns="http://www.w3.org/2000/svg"><path d="M16.552 2.844c-.475-.435-2.395-1.82-6.673-1.84 0 0-5.044-.301-7.502 1.94C1.007 4.307.526 6.297.477 8.767c-.052 2.468-.118 7.095 4.37 8.35h.004l-.003 1.914s-.03.775.484.933c.62.192.986-.397 1.578-1.031.326-.349.775-.86 1.114-1.253 3.068.257 5.428-.329 5.697-.416.619-.2 4.125-.646 4.695-5.273.587-4.77-.286-7.787-1.864-9.146zm.52 8.802c-.482 3.863-3.325 4.106-3.849 4.273-.223.071-2.296.584-4.901.415 0 0-1.943 2.33-2.549 2.936-.095.094-.206.133-.28.114-.105-.024-.133-.148-.131-.328l.016-3.18s-.003 0 0 0c-3.795-1.048-3.575-4.986-3.531-7.048.044-2.062.432-3.75 1.59-4.887 2.08-1.873 6.365-1.593 6.365-1.593 3.618.016 5.352 1.099 5.754 1.461 1.334 1.134 2.014 3.853 1.516 7.837z" fill="#fff"/><path d="M11.64 8.897a.24.24 0 01-.242-.23c-.04-.816-.427-1.217-1.217-1.258a.242.242 0 01-.229-.252.242.242 0 01.254-.228c1.042.054 1.622.647 1.674 1.714a.242.242 0 01-.229.252c-.003.002-.007.002-.012.002z" fill="#fff"/><path d="M12.882 9.31h-.006a.242.242 0 01-.237-.245c.018-.821-.219-1.487-.722-2.034-.504-.546-1.193-.845-2.108-.91a.24.24 0 01-.223-.257.241.241 0 01.258-.222c1.03.075 1.847.434 2.429 1.065.584.634.87 1.43.85 2.37a.24.24 0 01-.241.233z" fill="#fff"/><path d="M14.152 9.805a.241.241 0 01-.243-.238c-.011-1.451-.45-2.606-1.302-3.432-.854-.828-1.934-1.252-3.208-1.26a.242.242 0 01-.24-.243.243.243 0 01.241-.24h.002c1.404.01 2.597.481 3.543 1.398.948.92 1.436 2.188 1.447 3.773a.24.24 0 01-.239.242h-.001zm-3.91 2.072s.34.029.523-.196l.358-.447c.172-.222.588-.363.994-.138.305.173.601.361.887.563.27.197.823.656.825.656.263.22.324.546.144.888l-.001.007a3.697 3.697 0 01-.743.91l-.007.006c-.256.213-.508.334-.755.363a1.001 1.001 0 01-.43-.042l-.01-.012c-.38-.107-1.015-.375-2.073-.953a12.339 12.339 0 01-1.743-1.145 9.063 9.063 0 01-.784-.69L7.4 11.62l-.027-.026-.026-.026-.026-.026a9.02 9.02 0 01-.695-.78 12.36 12.36 0 01-1.152-1.73c-.583-1.053-.852-1.684-.959-2.062l-.011-.01a1.027 1.027 0 01-.043-.427c.031-.245.154-.495.365-.75l.006-.008c.264-.293.572-.542.915-.738l.008-.002c.344-.178.671-.117.893.143.001.001.463.551.66.82.203.284.392.578.566.882.226.404.085.818-.139.988l-.45.355c-.225.182-.196.52-.196.52s.667 2.503 3.152 3.134z" fill="#fff"/></svg>
